package/converter/svg/light/union.svg

<svg xmlns="http://www.w3.org/2000/svg" viewBox="0 0 384 512"><!-- Font Awesome Pro 6.0.0-alpha2 by @fontawesome - https://fontawesome.com License - https://fontawesome.com/license (Commercial License) --><path d="M0 288V48C0 39.156 7.156 32 16 32S32 39.156 32 48V288C32 376.219 103.781 448 192 448S352 376.219 352 288V48C352 39.156 359.156 32 368 32S384 39.156 384 48V288C384 393.875 297.875 480 192 480S0 393.875 0 288Z"/></svg>

<svg xmlns="http://www.w3.org/2000/svg" viewBox="0 0 384 512"><!--! Font Awesome Pro 6.6.0 by @fontawesome - https://fontawesome.com License - https://fontawesome.com/license (Commercial License) Copyright 2024 Fonticons, Inc. --><path d="M16 32c8.8 0 16 7.2 16 16l0 240c0 88.4 71.6 160 160 160s160-71.6 160-160l0-240c0-8.8 7.2-16 16-16s16 7.2 16 16l0 240c0 106-86 192-192 192S0 394 0 288L0 48c0-8.8 7.2-16 16-16z"/></svg>
